!! Example 1b from Section I (Modern Chinese) from Archibald T. Davison &
!! Willi Apel "Historical Anthology of Music" Vol. 1, Harvard University Press
!! (Cambridge) -1947; p. 3; irregular meter (mostly 4/4)
!! Qin	flute
**kern	**kern
*M4/4	*M4/4
8f	8r
=1	=1
4.f	{4.b-
8g	8cc
4a	4ee-}
4g	4cc
=2	=2
4f	2b-
4r	.
4f	2b-
4r	.
=3	=3
4b-	{4ee-
4b-	4ff
4f	4b-}
4f	4cc
=4	=4
8b-	2ee-
8b-	.
4b-	.
4b-	4ee-
4r	4r
=5	=5
8cc	{2ff
8cc	.
8cc	.
8cc	.
8cc	2gg}
8cc	.
4cc	.
=6	=6
4cc	{4ff
4r	4gg}
16b-	{4.ee-
16b-	.
16b-	.
16b-	.
4b-	.
.	8ff}
=7	=7
4b-	{8ee-
.	8cc
4f	8ee-
.	8ff
4g	8gg}
.	{8ee-
8.g	8.ff
16f	16ee-
=8	=8
*M5/4	*M5/4
8g	8cc
8f	16ee-
.	16cc
8g	8g
8b-	8b-
16f	[2f
16f	.
16f	.
16f	.
4f	4f}]
4r	4r
=9	=9
*M4/4	*M4/4
2r	{8ccc
.	8bb-
.	4gg'}
4f	{2bb-
4f	.
=10	=10
4g	4gg'}
4r	4gg
4f	4bb-
4f	4r
=11	=11
4g	{4.ccc
4f	.
.	8bb-
4f	4gg'}
4r	4ccc'
=12	=12
4f	2bb-
4r	.
4f	4bb-
4r	4r
=13	=13
8cc	2ff
8cc	.
4cc	.
8cc	2gg
8cc	.
8cc	.
8cc	.
=14	=14
4cc	{4ff
4cc	4gg'}
8b-	2ee-
8b-	.
4b-	.
=15	=15
4b-	{4cc
4f	4b-}
4g	{4cc
8b-	4ee-}
8b-	.
=16	=16
16cc	2ff
16cc	.
16cc	.
16cc	.
4cc	.
4cc	4ff
4f	4r
=17	=17
4dd	{4.gg
4dd	.
.	8ff}
4b-	{4ee-
4cc	4ff}
=18	=18
4dd	2gg
4r	.
4dd	4gg
4dd	4dd
=19	=19
4f	{4.b-
8f	.
8g	8cc}
4a	{4ee-
4g	4ccM}
=20	=20
4f	2b-
4r	.
4f	4b-
4r	4r
=21	=21
8a	{4ee-
8a	.
4a	4cc}
4r	{8b-
.	8cc
4a	4ee-}
=22	=22
8g	2cc
8g	.
4g	.
4g	{4cc
4g	4ee-}
=23	=23
4b-	{8cc
.	8ee-
4b-	8cc
.	8b-}
4r	2gg
4cc	.
=24	=24
4b-	2bb-
4r	.
4f	4bb-
4r	4r
=25	=25
4f	4r
4r	{4cc
4b-	8.b-
.	16cc
4g	[4ee-
=26	=26
4b-	4ee-]
8b-	4ff}
8b-	.
4b-	{4b-
4g	4ff}
=27	=27
4b-	4b-
4b-	{4cc
4g	4.ee-
4cc	.
.	8ff}
=28	=28
4b-	8cc
.	8ee-
4r	8ff
.	8gg
4b-	8ee-
.	8ff
8.f	4cc
16f	.
=29	=29
*M3/4	*M3/4
4f	4b-
2r	2r
=30	=30
*M4/4	*M4/4
4g	{4cc
4f	4b-}
4g	{4cc
4b-	4ee-
=31	=31
4b-	4ff}
4dd	{4gg
8cc	8.ff}
8cc	.
.	{16gg
4cc	8ff
.	8ee-}
=32	=32
4g	4cc
4f	{4b-
4g	4cc}
4b-	{4ee-
=33	=33
4b-	4ff}
4dd	{4gg
8cc	8ff}
8cc	{8gg
4cc	8ff
.	8ee-
=34	=34
4g	4cc}
8cc	4ff
8cc	.
4b-	{8ee-
.	8ff
8b-	8ee-}
8b-	8ccM
=35	=35
4f	[1b-
4r	.
4f	.
4r	.
=36	=36
4f	2b-]
4r	.
====	====
*-	*-
